src/16/actions/edit-table-cell-merge.svg

<svg xmlns="http://www.w3.org/2000/svg" width="16" height="16" viewBox="0 0 16 16">
 <defs>
  <style id="current-color-scheme" type="text/css">
   .ColorScheme-Text { color:#565656; } .ColorScheme-Highlight { color:#5294e2; }
  </style>
 </defs>
 <path style="fill:currentColor" class="ColorScheme-Text" d="m1 1v14h14v-14h-14zm2 2h2v2h2v-2h2v2h2v-2h2v2h-2v2h2v2h-2v2h2v2h-2v-2h-2v2h-2v-2h-2v2h-2v-2h2v-2h-2v-2h2v-2h-2v-2zm4 8v-6l-2 3 2 3zm2 0l2-3-2-3v6z"/>
</svg>

<svg xmlns="http://www.w3.org/2000/svg" width="16" height="16"><defs><style id="current-color-scheme" type="text/css"></style></defs><path d="M1 1v14h14V1H1zm2 2h2v2h2V3h2v2h2V3h2v2h-2v2h2v2h-2v2h2v2h-2v-2H9v2H7v-2H5v2H3v-2h2V9H3V7h2V5H3V3zm4 8V5L5 8l2 3zm2 0l2-3-2-3v6z" fill="currentColor" color="#565656"/></svg>
